X:1
T:Title
%%score { ( 1 4 ) | ( 2 3 5 ) }
L:1/8
M:3/4
K:F
V:1 treble nm="Grand Piano"
V:4 treble 
V:2 treble 
V:3 treble 
V:5 treble 
V:1
 z2 z[Q:1/4=85] c dc | c4[K:bass][K:treble] z2 | [CFA]3 F EF | [B,G]3 B A_A |[M:3/8] [CFA]3 | %5
 c z z |[M:3/4] z2 z A z2 | z6 | [Ec]4 z2 |[M:3/8] [A,F]3 | c=B[CAc] |[M:3/4] [Be]4 z2 | %12
 [FAc]3 A _A=A | [Fd]4 z2 |[M:3/8] [CEG]3 | c=B[CAc] |[M:3/4] [Af]4 z2 | z2 z2 z d | %18
[M:7/8] [FAc]3 [=B,F][CFA]3/2[_B,EG]3/2 |[M:3/8] [A,F]3 |] %20
V:2
 z2 z F3- | F3 F3 | F,C, F,A, G,A, | E,C, E,D C=B, |[M:3/8] F,C,F, | A,B,A, | %6
[M:3/4] A,-[C,A,-] [F,A,]C DC | F,C, F,A, B,C | E,G, C,D CB, |[M:3/8] F,C,F,, | A_A[K:bass]F, | %11
[M:3/4] [G,C]C, G,C, E,C, | F,3[K:treble] F F[K:bass][F,A,F] | [D,A,]F, D,D, G,G, |[M:3/8] C,3 | %15
 A_A[K:bass]F, |[M:3/4] [F,C]C, F,F, F,F, | [B,,B,]3[K:treble] [D_A] [^CG].[=B,DA] | %18
[M:7/8] CA,[K:bass]F, D,C,3/2C,3/2 |[M:3/8] F,3 |] %20
V:3
 z2 z A, B,A, | A,3 C DC | x6 | x6 |[M:3/8] x3 | x3 |[M:3/4] .F,2 z2 z2 | x6 | x6 |[M:3/8] x3 | %10
 x2[K:bass] x |[M:3/4] x6 | x3[K:treble] x2[K:bass] x | x6 |[M:3/8] x3 | x2[K:bass] x |[M:3/4] x6 | %17
 x3[K:treble] x3 |[M:7/8] x2[K:bass] x5 |[M:3/8] x3 |] %20
V:4
 x6 | z[K:bass] C, F,[K:treble]A BA | x6 | x6 |[M:3/8] x3 | F-[F-d][F-c] | %6
[M:3/4] [Fc]3 F- [F-B][F-A] | [CFA]3 F GA | z B, z B AG |[M:3/8] x3 | x3 | %11
[M:3/4] z C C[CEB] [CGB][EBd] | x6 | z A, A,[DFA] [DFG][=B,F] |[M:3/8] x3 | x3 | %16
[M:3/4] z C C[_EAc] [DFB][CFA] | [Fd]3 f .e>F |[M:7/8] x7 |[M:3/8] x3 |] %20
V:5
 x6 | .F,2 z2 z2 | x6 | x6 |[M:3/8] x3 | x3 |[M:3/4] x6 | x6 | x6 |[M:3/8] x3 | x2[K:bass] x | %11
[M:3/4] x6 | x3[K:treble] x2[K:bass] x | x6 |[M:3/8] x3 | x2[K:bass] x |[M:3/4] x6 | %17
 x3[K:treble] x3 |[M:7/8] x2[K:bass] x5 |[M:3/8] x3 |] %20

